Numix-GalliumOS/22/mimetypes/application-audio.svg

<?xml version="1.0" encoding="UTF-8" standalone="no"?>
<svg
   xmlns:dc="http://purl.org/dc/elements/1.1/"
   xmlns:cc="http://creativecommons.org/ns#"
   xmlns:rdf="http://www.w3.org/1999/02/22-rdf-syntax-ns#"
   xmlns:svg="http://www.w3.org/2000/svg"
   xmlns="http://www.w3.org/2000/svg"
   xmlns:sodipodi="http://sodipodi.sourceforge.net/DTD/sodipodi-0.dtd"
   xmlns:inkscape="http://www.inkscape.org/namespaces/inkscape"
   width="22"
   height="22"
   viewBox="0 0 22 22"
   id="svg2"
   version="1.1"
   inkscape:version="0.48.5 r10040"
   sodipodi:docname="application-audio.svg">
  <metadata
     id="metadata16">
    <rdf:RDF>
      <cc:Work
         rdf:about="">
        <dc:format>image/svg+xml</dc:format>
        <dc:type
           rdf:resource="http://purl.org/dc/dcmitype/StillImage" />
      </cc:Work>
    </rdf:RDF>
  </metadata>
  <defs
     id="defs14" />
  <sodipodi:namedview
     pagecolor="#ffffff"
     bordercolor="#666666"
     borderopacity="1"
     objecttolerance="10"
     gridtolerance="10"
     guidetolerance="10"
     inkscape:pageopacity="0"
     inkscape:pageshadow="2"
     inkscape:window-width="1280"
     inkscape:window-height="970"
     id="namedview12"
     showgrid="true"
     inkscape:zoom="10.727273"
     inkscape:cx="24.169821"
     inkscape:cy="-2.5034136"
     inkscape:window-x="0"
     inkscape:window-y="0"
     inkscape:window-maximized="1"
     inkscape:current-layer="svg2">
    <inkscape:grid
       type="xygrid"
       id="grid3004" />
  </sodipodi:namedview>
  <path
     style="fill:#9b4a85;fill-opacity:1"
     d="m 4,4e-7 c -0.472657,0 -1,0.527344 -1,1 L 3,21 c 0,0.445312 0.554687,1 1,1 l 14,0 c 0.445313,0 0.992367,-0.554753 1,-1 L 19,6.0000005 13,4e-7 z"
     id="path4-7"
     inkscape:connector-curvature="0"
     sodipodi:nodetypes="ssssssccs" />
  <path
     style="fill:#000000;fill-opacity:0.19599998"
     d="M 14,6.0000005 19,11 19,6.0000005 z"
     id="path6"
     inkscape:connector-curvature="0"
     sodipodi:nodetypes="cccc" />
  <path
     style="fill:#ffffff;fill-opacity:0.39200003"
     d="m 13,4e-7 6,6.0000001 -5,0 c -0.445312,0 -1,-0.554688 -1,-1.0000001 z"
     id="path8"
     inkscape:connector-curvature="0"
     sodipodi:nodetypes="ccssc" />
  <path
     style="fill:#ffffff"
     d="m 11.726092,8.1081635 c -0.70564,0.1751217 -1.292816,0.8241053 -1.292816,0.8241053 l 0.01545,0.020603 1.127995,4.1874846 c -0.803503,-0.437805 -1.9572503,-0.329642 -2.9101217,0.360547 -1.2310077,0.891064 -1.6585126,2.410508 -0.9477211,3.383982 0.7107901,0.978626 2.2868918,1.050734 3.5178998,0.159671 0.968322,-0.70564 1.509143,-1.807882 1.318569,-2.719548 -0.0103,-0.02575 -0.01545,-0.05151 -0.02576,-0.08241 L 11.447957,10.055112 C 11.47371,10.019058 11.7879,9.8748396 12.812881,9.8027297 13.894518,9.7306212 14.625913,8 14.625913,8 c 0,0 -1.215556,0.4635586 -2.173579,0.1287661 -0.24208,-0.087561 -0.494463,-0.08241 -0.726242,-0.020603 z"
     id="path10"
     inkscape:connector-curvature="0" />
</svg>

<svg xmlns="http://www.w3.org/2000/svg" viewBox="0 0 22 22">
 <path d="m 4 0 c -0.473 0 -1 0.527 -1 1 l 0 20 c 0 0.445 0.555 1 1 1 l 14 0 c 0.445 0 0.992 -0.555 1 -1 l 0 -15 -6 -6 z" style="fill:#9b4a85;fill-opacity:1"/>
 <path d="m 14 6 5 5 0 -5 z" style="fill:#000;fill-opacity:0.196"/>
 <path d="m 13 0 6 6 -5 0 c -0.445 0 -1 -0.555 -1 -1 z" style="fill:#fff;fill-opacity:0.392"/>
 <path d="m 11.726 8.108 c -0.706 0.175 -1.293 0.824 -1.293 0.824 l 0.015 0.021 1.128 4.187 c -0.804 -0.438 -1.957 -0.33 -2.91 0.361 -1.231 0.891 -1.659 2.411 -0.948 3.384 0.711 0.979 2.287 1.051 3.518 0.16 0.968 -0.706 1.509 -1.808 1.319 -2.72 -0.01 -0.026 -0.015 -0.052 -0.026 -0.082 l -1.082 -4.187 c 0.026 -0.036 0.34 -0.18 1.365 -0.252 1.082 -0.072 1.813 -1.803 1.813 -1.803 c 0 0 -1.216 0.464 -2.174 0.129 -0.242 -0.088 -0.494 -0.082 -0.726 -0.021 z" style="fill:#fff"/>
</svg>
